X: 08113
T: TII'S HORNPIPE
C: Bob McQuillen 3 May 91
B: Bob's Note Book 8 #113
%R: hornpipe, reel
Z: 2021 John Chambers <jc:trillian.mit.edu>
M: C
L: 1/8
K: Em
Bd \
| e2ge dBGB | A2BA GDEG | DEGB AGBd | e2B2 BABd |\
| egba gedB | A2BA GDEG | DEGA BdBA | G2E2 E2 :|
|: DE \
| GBAG EDGA | BGED E2GA | Bdeg edBA | Beed e2ba |\
| gedB edBG | BGAG E2GA | Bdeg dBAB | G2E2 E2 :|
%%begintext align
%% Tii McLane lives
%% up in Hartland, Vt, with husband Jeremiah. She's a
%% real fine flute player, and sometimes when Dave
%% Millstone calls a dance up that way, I get to play with
%% her. It's always a fun time, and I hope it happens again
%% real soon, Tii!
%%endtext

%%sep 1 1 500

%%sep 1 1 500

